X:1
T:Mr. Forbes Morrison's (Teacher of dancing, Tarves)
T:Mr. Forbes Morrison's (Teacher of dancing, Tarves)
T:Alexander Walker
C:Alexander Walker
L:1/8
M:2/2
K:A
V:1 treble 
V:1
 g | a2 ec fdec | dBcA BEGE | A2 GE FDE^D | CA,B,G, A,3 E | A,ECE A,EAC | B,BFB B,BcB | Aece Aeae | %8
 gbeg (a2 a) || g | a>A (A/A/A) (c/B/A) (c/d/e) | (c/B/A) (c/d/e) BEGB | %12
 a>A A/A/A (c/B/A) (c/d/e) | BEBG A3 g | a>A A/A/A (c/B/A) (c/d/e) | (c/B/A) (c/d/e) fBdf | %16
 abga fgef | eEFG (A2 A) || %18

